X:7187
T:The Passing Fancy
O:england
R:Reel
C:Ed Reavy
M:2/2
L:1/8
N:Only the great tunes survive. But in
N:our time we also welcome the charming
N:lift of a passing fancy. The first fresh
N:strains of a well-wrought tune make
N:us all a little bit better for the hearing of it.
K:G
DF|G2 Bd cAFA|GBAG FDB,D|G2 Bd (3cBA FA|defd cAFA|
G2 Bd (3cBA FA|GBAG FEFA|GBAc (3B^cd eg|1fdcA BGGF:|
2fdcA BGGf||gfeg fedf|gfga bgef|gfeg fedf|ecAG FGAf|
g2 eg fedf|gfga bgeg|(3bag (3agf agfg|1ecAc BGGf:|
2ecAF G2||


